data/styles/clear/style-clear/symbols/clothes-m.svg

<svg height="24" viewBox="0 0 24 24" width="24"><g fill="none" fill-rule="evenodd"><circle cx="12" cy="12" fill="#fff" opacity=".6" r="12"/><circle cx="12" cy="12" fill="#8c5f93" r="11"/><path d="m18.1545504 9.84414279h-2.4491115v8.15585721h-7.41087778v-8.15585721h-2.44911147l-.84544965-2.81146305 4.65912763-1.03267974c.23047926.90698844 1.05008077 1.59577677 2.05923537 1.70638512h.562197c1.0091546-.11060835 1.8266021-.79939668 2.0581584-1.70638512l4.6612816 1.03267974z" fill="#fff"/></g></svg>

<svg width="24" height="24" viewBox="0 0 24 24">
  <g fill="none" fill-rule="evenodd">
    <circle cx="12" cy="12" r="12" fill="#FFF" opacity=".6"/>
    <circle cx="12" cy="12" r="11" fill="#8C5F93"/>
    <path fill="#FFF" d="M18.1545504,9.84414279 L15.7054389,9.84414279 L15.7054389,18 L8.29456112,18 L8.29456112,9.84414279 L5.84544965,9.84414279 L5,7.03267974 L9.65912763,6 C9.88960689,6.90698844 10.7092084,7.59577677 11.718363,7.70638512 L12.28056,7.70638512 C13.2897146,7.59577677 14.1071621,6.90698844 14.3387184,6 L19,7.03267974 L18.1545504,9.84414279 L18.1545504,9.84414279 Z"/>
  </g>
</svg>
